X: 574
T:Sommarvals
M:3/4
L:1/4
C:Ale Mvller
R:waltz
N:Posted to the woodenflute mailing list September 2002
Z: Part of the abcs supplied as a data track on the
Z: Geckoes 'Red Horse' CD
K:G
|:dc | B&gt;AG | A&gt;GF | G3 | E3 |D2G | c2B |
B&gt;AG|Adc| B&gt;AG | A&gt;GF | G3 | E3 | D2G | G2F |
[1 G3-|G:|[2 G3| G|:FG | A&gt;BA | AFD | c3 | B3/2 A/G/F/ |
E A/B/c/A/ | d2 G | GFG | A3 | G&gt;AG | F&gt;GF | E&gt;FE |
DGA | B&gt;AG | A&lt;dF |[1 G3- | G :|[2 G3 | G ||

